build/img/sprite/icon-landscape.svg

<svg width="58" height="58" viewBox="0 0 58 58" fill="none" xmlns="http://www.w3.org/2000/svg">
<circle cx="29" cy="29" r="29" fill="#86909C"/>
<rect x="20.2656" y="19.0781" width="0.96875" height="4.84375" rx="0.484375" stroke="white" stroke-width="0.96875"/>
<rect x="20.2656" y="26.8281" width="0.96875" height="4.84375" rx="0.484375" stroke="white" stroke-width="0.96875"/>
<rect x="20.2656" y="34.5781" width="0.96875" height="4.84375" rx="0.484375" stroke="white" stroke-width="0.96875"/>
<rect x="26.0781" y="19.0781" width="0.96875" height="4.84375" rx="0.484375" stroke="white" stroke-width="0.96875"/>
<rect x="26.0781" y="26.8281" width="0.96875" height="4.84375" rx="0.484375" stroke="white" stroke-width="0.96875"/>
<rect x="13.4844" y="14.2344" width="20.3438" height="0.96875" rx="0.484375" stroke="white" stroke-width="0.96875"/>
<rect x="13.4844" y="43.2969" width="30.0312" height="0.96875" rx="0.484375" stroke="white" stroke-width="0.96875"/>
<path fill-rule="evenodd" clip-rule="evenodd" d="M16.9375 15.75H30.375V35.1737C30.7243 35.1009 31.0874 35.0625 31.4599 35.0625C31.7724 35.0625 32.0783 35.0895 32.375 35.1412V15.75V13.75H30.375H16.9375H14.9375V15.75V42.75V44.75H16.9375H22.8328C22.7526 44.75 22.6875 44.6849 22.6875 44.6047V42.75H16.9375V15.75Z" fill="white"/>
<path fill-rule="evenodd" clip-rule="evenodd" d="M31.4599 37C30.2807 37 29.2962 37.5987 28.7821 38.4228C28.3445 39.1242 27.5381 39.4975 26.7272 39.3869C26.6369 39.3746 26.5434 39.3681 26.4472 39.3681C25.3357 39.3681 24.625 40.1931 24.625 40.9826V42.8125H38.2951V41.4668C38.2874 41.4385 38.2803 41.41 38.2738 41.3812C38.1831 40.9789 37.7528 40.5522 37.0996 40.5522C37.0087 40.5522 36.922 40.5607 36.84 40.5763C35.7893 40.7761 34.7376 40.1483 34.4375 39.0952C34.1115 37.9513 32.9541 37 31.4599 37ZM27.1382 37.3973C27.1066 37.4479 27.0481 37.4752 26.989 37.4672C26.8121 37.443 26.6312 37.4306 26.4472 37.4306C24.3708 37.4306 22.6875 39.0209 22.6875 40.9826V44.6047C22.6875 44.6849 22.7526 44.75 22.8328 44.75H40.0873C40.1676 44.75 40.2326 44.6849 40.2326 44.6047V41.0173C40.2326 40.9982 40.2171 40.9826 40.198 40.9826C40.1816 40.9826 40.1675 40.9712 40.1639 40.9552C39.8625 39.6178 38.605 38.6147 37.0996 38.6147C36.8868 38.6147 36.679 38.6347 36.4781 38.6729C36.4 38.6877 36.3226 38.6406 36.3008 38.5642C35.726 36.5471 33.7765 35.0625 31.4599 35.0625C29.619 35.0625 28.0098 36 27.1382 37.3973Z" fill="white"/>
<rect x="39.6406" y="34.5781" width="9.6875" height="0.96875" rx="0.484375" transform="rotate(90 39.6406 34.5781)" stroke="white" stroke-width="0.96875"/>
<rect x="35.3125" y="21.5312" width="7.6875" height="13.5" rx="3.84375" stroke="white" stroke-width="2"/>
</svg>

<svg width="58" height="58" fill="none" xmlns="http://www.w3.org/2000/svg"><circle cx="29" cy="29" r="29" fill="#86909C"/><rect x="20.266" y="19.078" width=".969" height="4.844" rx=".484" stroke="#fff" stroke-width=".969"/><rect x="20.266" y="26.828" width=".969" height="4.844" rx=".484" stroke="#fff" stroke-width=".969"/><rect x="20.266" y="34.578" width=".969" height="4.844" rx=".484" stroke="#fff" stroke-width=".969"/><rect x="26.078" y="19.078" width=".969" height="4.844" rx=".484" stroke="#fff" stroke-width=".969"/><rect x="26.078" y="26.828" width=".969" height="4.844" rx=".484" stroke="#fff" stroke-width=".969"/><rect x="13.484" y="14.234" width="20.344" height=".969" rx=".484" stroke="#fff" stroke-width=".969"/><rect x="13.484" y="43.297" width="30.031" height=".969" rx=".484" stroke="#fff" stroke-width=".969"/><path fill-rule="evenodd" clip-rule="evenodd" d="M16.938 15.75h13.437v19.424a5.315 5.315 0 012-.033V13.75H14.937v31h7.896a.145.145 0 01-.145-.145V42.75h-5.75v-27z" fill="#fff"/><path fill-rule="evenodd" clip-rule="evenodd" d="M31.46 37c-1.18 0-2.164.599-2.678 1.423a2.09 2.09 0 01-2.055.964 2.074 2.074 0 00-.28-.019c-1.111 0-1.822.825-1.822 1.615v1.83h13.67v-1.346a2.018 2.018 0 01-.021-.086c-.09-.402-.521-.829-1.174-.829-.091 0-.178.009-.26.024a2.092 2.092 0 01-2.403-1.48C34.112 37.95 32.955 37 31.46 37zm-4.322.397a.152.152 0 01-.149.07 3.996 3.996 0 00-.542-.036c-2.076 0-3.76 1.59-3.76 3.552v3.622c0 .08.066.145.146.145h17.254c.08 0 .146-.065.146-.145v-3.588a.035.035 0 00-.035-.034.035.035 0 01-.034-.028c-.302-1.337-1.559-2.34-3.064-2.34-.213 0-.421.02-.622.058a.155.155 0 01-.177-.109c-.575-2.017-2.525-3.502-4.841-3.502-1.841 0-3.45.938-4.322 2.335z" fill="#fff"/><rect x="39.641" y="34.578" width="9.688" height=".969" rx=".484" transform="rotate(90 39.64 34.578)" stroke="#fff" stroke-width=".969"/><rect x="35.313" y="21.531" width="7.688" height="13.5" rx="3.844" stroke="#fff" stroke-width="2"/></svg>
